icon-themes/breeze_svg/cmd/lc_closepreview.svg

<svg viewBox="0 0 24 24" xmlns="http://www.w3.org/2000/svg"><path d="m12 6a6 6 0 0 0 -6 6 6 6 0 0 0 6 6 6 6 0 0 0 6-6 6 6 0 0 0 -6-6z" fill="#fff"/><path d="m12 4a7.9999995 8.0000081 0 0 0 -8 8 7.9999995 8.0000081 0 0 0 8 8 7.9999995 8.0000081 0 0 0 8-8 7.9999995 8.0000081 0 0 0 -8-8zm-3.2929688 4 3.2929688 3.292969 3.292969-3.292969.707031.7070312-3.292969 3.2929688 3.292969 3.292969-.707031.707031-3.292969-3.292969-3.2929688 3.292969-.7070312-.707031 3.292969-3.292969-3.292969-3.2929688z" fill="#da4453"/></svg>

<svg xmlns="http://www.w3.org/2000/svg" viewBox="0 0 24 24">
 <path 
     style="fill:#ffffff" 
     d="M 12 6 A 6 6 0 0 0 6 12 A 6 6 0 0 0 12 18 A 6 6 0 0 0 18 12 A 6 6 0 0 0 12 6 z "
     />
 <path 
     style="fill:#da4453" 
     d="M 12 4 A 7.9999995 8.0000081 0 0 0 4 12 A 7.9999995 8.0000081 0 0 0 12 20 A 7.9999995 8.0000081 0 0 0 20 12 A 7.9999995 8.0000081 0 0 0 12 4 z M 8.7070312 8 L 12 11.292969 L 15.292969 8 L 16 8.7070312 L 12.707031 12 L 16 15.292969 L 15.292969 16 L 12 12.707031 L 8.7070312 16 L 8 15.292969 L 11.292969 12 L 8 8.7070312 L 8.7070312 8 z "
     />
 </svg>
